website/internet-icon.svg

<svg version="1.1" xmlns="http://www.w3.org/2000/svg" xmlns:xlink="http://www.w3.org/1999/xlink" width="16" height="13.34609" viewBox="0,0,16,13.34609"><g transform="translate(-232,-173)"><g data-paper-data="{&quot;isPaintingLayer&quot;:true}" fill="#ffffff" fill-rule="nonzero" stroke="none" stroke-width="1" stroke-linecap="butt" stroke-linejoin="miter" stroke-miterlimit="10" stroke-dasharray="" stroke-dashoffset="0" style="mix-blend-mode: normal"><path d="M244.25887,179.82321c0.47022,0.43921 0.49023,1.16055 0.06003,1.63077c-0.2191,0.24011 -0.53025,0.37017 -0.8404,0.37017c-0.28013,0 -0.56026,-0.11005 -0.78037,-0.31115c-1.47069,-1.36965 -3.92085,-1.38965 -5.41255,-0.05903c-0.48023,0.4202 -1.20057,0.38018 -1.63077,-0.10005c-0.4202,-0.47022 -0.37918,-1.20057 0.10005,-1.62076c1.16055,-1.03049 2.65125,-1.60075 4.20198,-1.60075c1.60075,0 3.13148,0.60028 4.30203,1.6908zM242.03803,184.41518c0,1.0615 -0.87041,1.93091 -1.93091,1.93091c-1.0705,0 -1.94091,-0.86941 -1.94091,-1.93091c0,-1.0705 0.87041,-1.93991 1.94091,-1.93991c1.0605,0 1.93091,0.86941 1.93091,1.93991zM247.65007,176.11147c0.45121,0.43921 0.47122,1.16055 0.03001,1.62076c-0.22911,0.24011 -0.53025,0.35016 -0.82939,0.35016c-0.29114,0 -0.58027,-0.10005 -0.80138,-0.32115c-1.63977,-1.57974 -3.8108,-2.46116 -6.09187,-2.46116c-2.25106,0 -4.38206,0.8514 -6.02284,2.39213c-0.46122,0.4302 -1.19056,0.41019 -1.62176,-0.05002c-0.44021,-0.46022 -0.40919,-1.19056 0.05102,-1.63177c2.05997,-1.93991 4.76124,-3.01042 7.59358,-3.01042c2.88036,0 5.61164,1.11052 7.69262,3.11147z"/></g></g></svg>

<?xml version="1.0" standalone="no"?>
<!DOCTYPE svg PUBLIC "-//W3C//DTD SVG 1.0//EN" "http://www.w3.org/TR/2001/REC-SVG-20010904/DTD/svg10.dtd">
<svg xmlns="http://www.w3.org/2000/svg" xmlns:xlink="http://www.w3.org/1999/xlink" id="body_1" width="28" height="23">

<g transform="matrix(1.7233512 0 0 1.7233512 0.21319029 -0)">
	<g transform="matrix(1 0 0 1 -232 -173)">
		<g>
            <path d="M244.25887 179.82321C 244.72908 180.26242 244.7491 180.98376 244.3189 181.45398C 244.0998 181.69409 243.78865 181.82414 243.4785 181.82414C 243.19836 181.82414 242.91824 181.7141 242.69814 181.51299C 241.22745 180.14334 238.77728 180.12334 237.28558 181.45395C 236.80536 181.87415 236.085 181.83412 235.65482 181.3539C 235.23462 180.88368 235.27563 180.15332 235.75487 179.73314C 236.91542 178.70265 238.40611 178.13239 239.95685 178.13239C 241.5576 178.13239 243.08833 178.73267 244.25888 179.82318L244.25888 179.82318L244.25887 179.82321zM242.03802 184.41518C 242.03802 185.47667 241.16762 186.34608 240.10712 186.34608C 239.03662 186.34608 238.16621 185.47667 238.16621 184.41518C 238.16621 183.34468 239.03662 182.47527 240.10712 182.47527C 241.16762 182.47527 242.03802 183.34468 242.03802 184.41518zM247.65007 176.11147C 248.10127 176.55067 248.12129 177.27202 247.68008 177.73222C 247.45097 177.97234 247.14984 178.08238 246.8507 178.08238C 246.55956 178.08238 246.27042 177.98233 246.04932 177.76123C 244.40955 176.18149 242.23851 175.30006 239.95744 175.30006C 237.70639 175.30006 235.57538 176.15146 233.9346 177.6922C 233.47337 178.1224 232.74403 178.10239 232.31284 177.64218C 231.87262 177.18196 231.90364 176.45161 232.36386 176.0104C 234.42383 174.0705 237.1251 172.99998 239.95744 172.99998C 242.8378 172.99998 245.56908 174.1105 247.65007 176.11145z" stroke="none" fill="#FFFFFF" fill-rule="nonzero" />
		</g>
	</g>
</g>
</svg>
